X:229
T:Albuquerque Turkey
C:by David Grisman/Mike Marshall
N:from allbum "Mondo Mando" (1981) edited by Steven Block 6/2014 
L:1/8
Q:1/4=220
M:4/4
K:G
"Intro (fiddle/le"z6 (3FG^G | A"D"B AF AB AF | AB Ad3 (3FG^G | "D7"Ac AF DE FD | 
"D+"CF DC ^A,2 =A,2 | "G"DG DD B,G, DG | DD B,G, DG DB, | "D7"CF DC A,G, CF | 
DC A,G, CF DC | "G"DG DD B,G, DG | DD B,G, DG DB, | "D7"CF DC A,F DB, | G,2 B,2 C2 ^C2 | 
DG DD B,G, DG | DD B,G, DG DB, | "D7"CF DC A,G, CF | DC A,G, CF DC | "G"DG DD B,G, DG | 
DD B,G, DG DB, | "D7"CF DC A,F DB, | "G"G,8 | "C"cB Ad z^d ze | z8 | "G"A^A BA =AG ED | 
EG7/1 | "A7"^CE DE GB AB | ^cf ef gf e2 | "D7"DE F^G ^Ac de | "D+"f^g ^ac' d'4 | 
"G"DG DD B,G, DG | DD B,G, DG DB, | "D7"CF DC A,G, CF | DC A,G, CF DC | "G"DG DD B,G, DG | 
DD B,G, DG DB, | "D7"CF DC A,F DB, | "G"G,8 | 
 

